styles/1/Numix/48/places/orange-folder-recent.svg

<?xml version="1.0" encoding="UTF-8" standalone="no"?>
<!-- Created with Inkscape (http://www.inkscape.org/) -->

<svg
   xmlns:dc="http://purl.org/dc/elements/1.1/"
   xmlns:cc="http://creativecommons.org/ns#"
   xmlns:rdf="http://www.w3.org/1999/02/22-rdf-syntax-ns#"
   xmlns:svg="http://www.w3.org/2000/svg"
   xmlns="http://www.w3.org/2000/svg"
   xmlns:sodipodi="http://sodipodi.sourceforge.net/DTD/sodipodi-0.dtd"
   xmlns:inkscape="http://www.inkscape.org/namespaces/inkscape"
   width="48"
   height="48"
   id="svg2"
   version="1.1"
   inkscape:version="0.91 r"
   sodipodi:docname="orange-folder-recent.svg">
  <defs
     id="defs4" />
  <sodipodi:namedview
     id="base"
     pagecolor="#ffffff"
     bordercolor="#666666"
     borderopacity="1.0"
     inkscape:pageopacity="0.0"
     inkscape:pageshadow="2"
     inkscape:zoom="17.627784"
     inkscape:cx="22.278057"
     inkscape:cy="19.12132"
     inkscape:document-units="px"
     inkscape:current-layer="layer1"
     showgrid="true"
     inkscape:window-width="1280"
     inkscape:window-height="998"
     inkscape:window-x="0"
     inkscape:window-y="0"
     inkscape:window-maximized="1">
    <inkscape:grid
       type="xygrid"
       id="grid2990"
       empspacing="5"
       visible="true"
       enabled="true"
       snapvisiblegridlinesonly="true" />
  </sodipodi:namedview>
  <metadata
     id="metadata7">
    <rdf:RDF>
      <cc:Work
         rdf:about="">
        <dc:format>image/svg+xml</dc:format>
        <dc:type
           rdf:resource="http://purl.org/dc/dcmitype/StillImage" />
        <dc:title />
      </cc:Work>
    </rdf:RDF>
  </metadata>
  <g
     inkscape:label="Body"
     inkscape:groupmode="layer"
     id="layer1"
     transform="translate(0,-1004.3622)">
    <path
       style="font-size:medium;font-style:normal;font-variant:normal;font-weight:normal;font-stretch:normal;text-indent:0;text-align:start;text-decoration:none;line-height:normal;letter-spacing:normal;word-spacing:normal;text-transform:none;direction:ltr;block-progression:tb;writing-mode:lr-tb;text-anchor:start;baseline-shift:baseline;color:#000000;fill:#f57c00;fill-opacity:1;fill-rule:nonzero;stroke:none;stroke-width:3.00000024;marker:none;visibility:visible;display:inline;overflow:visible;enable-background:accumulate;font-family:Sans;-inkscape-font-specification:Sans"
       d="M 5.1875 8 C 4.5111319 8.1439 3.9849192 8.8086 4 9.5 L 4 37.5 C 4.0000786 38.2853 4.7146233 38.9999 5.5 39 L 42.5 39 C 43.285377 38.9999 43.999921 38.2853 44 37.5 L 44 12.53125 C 43.999921 11.74585 43.285377 11.03135 42.5 11.03125 L 28 11.03125 L 28 9.5 C 27.999921 8.7146 27.285377 8 26.5 8 L 5.5 8 C 5.3962117 7.989 5.2912883 7.989 5.1875 8 z M 17 17 L 18.84375 18.84375 C 20.233805 17.67695 22.043129 17 24 17 C 28.418278 17 32 20.5817 32 25 C 32 29.4183 28.418278 33 24 33 C 19.581723 33 16 29.4183 16 25 C 16 24.3112 16.086295 23.6377 16.25 23 L 18.34375 23 C 18.122984 23.6251 18 24.2993 18 25 C 18 28.3137 20.686292 31 24 31 C 27.313708 31 30 28.3137 30 25 C 30 21.6863 27.313708 19 24 19 C 22.599254 19 21.303889 19.47845 20.28125 20.28125 L 22 22 L 17 22 L 17 17 z M 23.90625 19.96875 A 1.0001 1.0001 0 0 1 25 21 L 25 24.40625 L 27.09375 25.625 A 1.0077822 1.0077822 0 0 1 26.09375 27.375 L 23.625 25.9375 A 1.0001 1.0001 0 0 1 23.5 25.875 A 1.0001 1.0001 0 0 1 23.4375 25.84375 A 1.0001 1.0001 0 0 1 23.40625 25.8125 A 1.0001 1.0001 0 0 1 23.375 25.78125 A 1.0001 1.0001 0 0 1 23.3125 25.75 A 1.0001 1.0001 0 0 1 23.28125 25.71875 A 1.0001 1.0001 0 0 1 23.25 25.6875 A 1.0001 1.0001 0 0 1 23.21875 25.65625 A 1.0001 1.0001 0 0 1 23.1875 25.625 A 1.0001 1.0001 0 0 1 23.15625 25.5625 A 1.0001 1.0001 0 0 1 23.125 25.53125 A 1.0001 1.0001 0 0 1 23 24.78125 A 1.0001 1.0001 0 0 1 23 24.6875 L 23 21 A 1.0001 1.0001 0 0 1 23.78125 20 A 1.0001 1.0001 0 0 1 23.90625 19.96875 z "
       transform="translate(0,1004.3622)"
       id="path3912" />
  </g>
</svg>

<!-- Created with Inkscape (http://www.inkscape.org/) -->
<svg xmlns="http://www.w3.org/2000/svg" viewBox="0 0 48 48">
 <g transform="translate(0,-1004.3622)">
  <path d="m 5.188 8 c -0.676 0.144 -1.203 0.809 -1.188 1.5 l 0 28 c 0 0.785 0.715 1.5 1.5 1.5 l 37 0 c 0.785 0 1.5 -0.715 1.5 -1.5 l 0 -24.969 c 0 -0.785 -0.715 -1.5 -1.5 -1.5 l -14.5 0 l 0 -1.531 c 0 -0.785 -0.715 -1.5 -1.5 -1.5 l -21 0 c -0.104 -0.011 -0.209 -0.011 -0.313 0 z m 11.813 9 l 1.844 1.844 c 1.39 -1.167 3.199 -1.844 5.156 -1.844 c 4.418 0 8 3.582 8 8 c 0 4.418 -3.582 8 -8 8 c -4.418 0 -8 -3.582 -8 -8 c 0 -0.689 0.086 -1.362 0.25 -2 l 2.094 0 c -0.221 0.625 -0.344 1.299 -0.344 2 c 0 3.314 2.686 6 6 6 c 3.314 0 6 -2.686 6 -6 c 0 -3.314 -2.686 -6 -6 -6 c -1.401 0 -2.696 0.478 -3.719 1.281 l 1.719 1.719 l -5 0 l 0 -5 z m 6.906 2.969 a 1 1 0 0 1 1.094 1.031 l 0 3.406 l 2.094 1.219 a 1.01 1.01 0 0 1 -1 1.75 l -2.469 -1.438 a 1 1 0 0 1 -0.125 -0.063 a 1 1 0 0 1 -0.063 -0.031 a 1 1 0 0 1 -0.031 -0.031 a 1 1 0 0 1 -0.031 -0.031 a 1 1 0 0 1 -0.063 -0.031 a 1 1 0 0 1 -0.031 -0.031 a 1 1 0 0 1 -0.031 -0.031 a 1 1 0 0 1 -0.031 -0.031 a 1 1 0 0 1 -0.031 -0.031 a 1 1 0 0 1 -0.031 -0.063 a 1 1 0 0 1 -0.031 -0.031 a 1 1 0 0 1 -0.125 -0.75 a 1 1 0 0 1 0 -0.094 l 0 -3.688 a 1 1 0 0 1 0.781 -1 a 1 1 0 0 1 0.125 -0.031 z" transform="translate(0,1004.3622)" style="visibility:visible;fill:#f57c00;fill-opacity:1;stroke:none;display:inline;color:#000;fill-rule:nonzero"/>
 </g>
</svg>
